X:1
T: the Almost Reel
C:Chris Armstrong
Z:James Curtin <curtinjj@sover.net> (irtrad-l 1999/12/30)
M:4/4
L:1/8
K:D
| ~B3 d cA B2 | DddA dAFA | ~B3d cA B2 | DddA BF ~F2 |
| ~B3 d cA B2 | DddA dAFA | ~B3d cA B2 | DddA BA ~A2 |
| ~B3 d eB d2 | BddA dAFA | EBeB dc B2 | DddA BF ~F2 |
| ~B3 d eB d2 | BddA dAFA | EBeB dc B2 | DddA BA ~A2 |]
